src/list.svg

<svg xmlns="http://www.w3.org/2000/svg" viewBox="0 0 20 20"><path d="M1 4h2v2H1V4zm4 0h14v2H5V4zM1 9h2v2H1V9zm4 0h14v2H5V9zm-4 5h2v2H1v-2zm4 0h14v2H5v-2z"/></svg>

<?xml version="1.0" encoding="UTF-8" standalone="no"?>
<svg width="20px" height="20px" viewBox="0 0 20 20" version="1.1" xmlns="http://www.w3.org/2000/svg" xmlns:xlink="http://www.w3.org/1999/xlink">
    <!-- Generator: Sketch 3.7.2 (28276) - http://www.bohemiancoding.com/sketch -->
    <title>list</title>
    <desc>Created with Sketch.</desc>
    <defs></defs>
    <g id="Page-1" stroke="none" stroke-width="1" fill="none" fill-rule="evenodd">
        <g id="list" fill="#000000">
            <path d="M1,4 L3,4 L3,6 L1,6 L1,4 Z M5,4 L19,4 L19,6 L5,6 L5,4 Z M1,9 L3,9 L3,11 L1,11 L1,9 Z M5,9 L19,9 L19,11 L5,11 L5,9 Z M1,14 L3,14 L3,16 L1,16 L1,14 Z M5,14 L19,14 L19,16 L5,16 L5,14 Z" id="Combined-Shape"></path>
        </g>
    </g>
</svg>
